src/assets/images/beta-icon.svg

<svg xmlns="http://www.w3.org/2000/svg" width="59" height="23" viewBox="0 0 59 23">
  <g fill="none" fill-rule="evenodd">
    <rect width="59" height="23" fill="#FEE259" rx="2"/>
    <path fill="#484848" d="M16.42,7 L20.256,7 C21.2080048,7 21.9336642,7.22633107 22.433,7.679 C22.9323358,8.13166893 23.182,8.73599622 23.182,9.492 C23.182,9.8186683 23.1353338,10.1033321 23.042,10.346 C22.9486662,10.5886679 22.8296674,10.7986658 22.685,10.976 C22.5403326,11.1533342 22.3770009,11.3003327 22.195,11.417 C22.0129991,11.5336672 21.8333342,11.6246663 21.656,11.69 C21.8893345,11.7273335 22.1226655,11.7949995 22.356,11.893 C22.5893345,11.9910005 22.7969991,12.1309991 22.979,12.313 C23.1610009,12.4950009 23.3103328,12.721332 23.427,12.992 C23.5436672,13.262668 23.602,13.5799982 23.602,13.944 C23.602,14.3640021 23.5250008,14.7489982 23.371,15.099 C23.2169992,15.4490017 23.0000014,15.7499987 22.72,16.002 C22.4399986,16.2540013 22.1063353,16.4499993 21.719,16.59 C21.3316647,16.7300007 20.904669,16.8 20.438,16.8 L16.42,16.8 L16.42,7 Z M18.044,8.33 L18.044,11.13 L19.696,11.13 C20.2933363,11.13 20.7436651,11.0133345 21.047,10.78 C21.3503348,10.5466655 21.502,10.1733359 21.502,9.66 C21.502,9.193331 21.3690013,8.85500105 21.103,8.645 C20.8369987,8.43499895 20.4100029,8.33 19.822,8.33 L18.044,8.33 Z M18.044,15.47 L19.864,15.47 C20.2653353,15.47 20.5966654,15.432667 20.858,15.358 C21.1193346,15.283333 21.3293325,15.178334 21.488,15.043 C21.6466675,14.907666 21.7586663,14.7466676 21.824,14.56 C21.8893337,14.3733324 21.922,14.1680011 21.922,13.944 C21.922,13.3746638 21.7353352,12.9803344 21.362,12.761 C20.9886648,12.5416656 20.4800032,12.432 19.836,12.432 L18.044,12.432 L18.044,15.47 Z M30.91,15.344 C30.6486654,15.8480025 30.2870023,16.2469985 29.825,16.541 C29.3629977,16.8350015 28.7820035,16.982 28.082,16.982 C27.5779975,16.982 27.123002,16.8980008 26.717,16.73 C26.310998,16.5619992 25.9656681,16.3240015 25.681,16.016 C25.3963319,15.7079985 25.1770008,15.3393355 25.023,14.91 C24.8689992,14.4806645 24.792,14.0000027 24.792,13.468 C24.792,12.9453307 24.8689992,12.4693355 25.023,12.04 C25.1770008,11.6106645 25.3963319,11.2443348 25.681,10.941 C25.9656681,10.6376651 26.3063314,10.4020008 26.703,10.234 C27.0996686,10.0659992 27.5406642,9.982 28.026,9.982 C28.5580027,9.982 29.019998,10.0753324 29.412,10.262 C29.804002,10.4486676 30.128332,10.6983318 30.385,11.011 C30.6416679,11.3236682 30.8329994,11.6876646 30.959,12.103 C31.0850006,12.5183354 31.148,12.9499978 31.148,13.398 L31.148,13.846 L26.416,13.846 C26.4253334,14.0980013 26.4626663,14.3406655 26.528,14.574 C26.5933337,14.8073345 26.6913327,15.0149991 26.822,15.197 C26.9526673,15.3790009 27.1206656,15.5236661 27.326,15.631 C27.5313344,15.7383339 27.7786652,15.792 28.068,15.792 C28.4786687,15.792 28.7936656,15.6986676 29.013,15.512 C29.2323344,15.3253324 29.4073327,15.0873348 29.538,14.798 L30.91,15.344 Z M28.012,11.144 C27.5359976,11.144 27.1673346,11.2979985 26.906,11.606 C26.6446654,11.9140015 26.4906669,12.3106642 26.444,12.796 L29.552,12.796 C29.5333332,12.2639973 29.3840014,11.8556681 29.104,11.571 C28.8239986,11.2863319 28.4600022,11.144 28.012,11.144 Z M36.3,16.702 C36.1319992,16.7860004 35.9290012,16.8536664 35.691,16.905 C35.4529988,16.9563336 35.2033346,16.982 34.942,16.982 C34.3259969,16.982 33.8406684,16.8210016 33.486,16.499 C33.1313316,16.1769984 32.954,15.7080031 32.954,15.092 L32.954,11.34 L31.834,11.34 L31.834,10.164 L32.954,10.164 L32.954,8.274 L34.536,7.546 L34.536,10.164 L36.034,10.164 L36.034,11.34 L34.536,11.34 L34.536,14.896 C34.536,15.1853348 34.5943327,15.3883327 34.711,15.505 C34.8276672,15.6216672 34.9793324,15.68 35.166,15.68 C35.3060007,15.68 35.4319994,15.6566669 35.544,15.61 C35.6560006,15.5633331 35.7633328,15.5120003 35.866,15.456 L36.3,16.702 Z M37.154,13.482 C37.154,12.940664 37.2309992,12.4553355 37.385,12.026 C37.5390008,11.5966645 37.7489987,11.2303348 38.015,10.927 C38.2810013,10.6236651 38.5936649,10.3903341 38.953,10.227 C39.3123351,10.0636658 39.7019979,9.982 40.122,9.982 C40.6260025,9.982 41.0529983,10.0893323 41.403,10.304 C41.7530017,10.5186677 42.0119992,10.7893317 42.18,11.116 L42.18,10.164 L43.706,10.164 L43.706,16.8 L42.18,16.8 L42.18,15.82 C42.0026658,16.1186682 41.7460017,16.3869988 41.41,16.625 C41.0739983,16.8630012 40.6260028,16.982 40.066,16.982 C39.6553313,16.982 39.2726684,16.9003341 38.918,16.737 C38.5633316,16.5736658 38.2553346,16.3403348 37.994,16.037 C37.7326654,15.7336651 37.5273341,15.3673355 37.378,14.938 C37.2286659,14.5086645 37.154,14.023336 37.154,13.482 Z M40.444,11.242 C40.1919987,11.242 39.9633344,11.2979994 39.758,11.41 C39.5526656,11.5220006 39.3776674,11.6783323 39.233,11.879 C39.0883326,12.0796677 38.978667,12.3176653 38.904,12.593 C38.829333,12.8683347 38.792,13.1646651 38.792,13.482 C38.792,13.7993349 38.829333,14.0956653 38.904,14.371 C38.978667,14.6463347 39.0859993,14.8843323 39.226,15.085 C39.3660007,15.2856677 39.533999,15.4419994 39.73,15.554 C39.926001,15.6660006 40.1499987,15.722 40.402,15.722 C40.5886676,15.722 40.7846656,15.6870003 40.99,15.617 C41.1953344,15.5469996 41.3819992,15.4350008 41.55,15.281 C41.7180008,15.1269992 41.8556661,14.9263346 41.963,14.679 C42.0703339,14.4316654 42.124,14.1353351 42.124,13.79 L42.124,13.174 C42.124,12.8193316 42.0703339,12.5206679 41.963,12.278 C41.8556661,12.0353321 41.7203341,11.8370008 41.557,11.683 C41.3936659,11.5289992 41.214001,11.4170003 41.018,11.347 C40.821999,11.2769996 40.6306676,11.242 40.444,11.242 Z"/>
  </g>
</svg>

<svg xmlns="http://www.w3.org/2000/svg" width="59" height="23"><g fill="none" fill-rule="evenodd"><rect width="59" height="23" fill="#FEE259" rx="2"/><path fill="#484848" d="M16.42 7h3.836c.952 0 1.678.226 2.177.679.5.453.749 1.057.749 1.813 0 .327-.047.611-.14.854a2.286 2.286 0 01-.357.63 2.08 2.08 0 01-.49.441 2.79 2.79 0 01-.539.273c.233.037.467.105.7.203.233.098.441.238.623.42s.331.408.448.679c.117.27.175.588.175.952 0 .42-.077.805-.231 1.155a2.62 2.62 0 01-.651.903c-.28.252-.614.448-1.001.588-.387.14-.814.21-1.281.21H16.42V7zm1.624 1.33v2.8h1.652c.597 0 1.048-.117 1.351-.35.303-.233.455-.607.455-1.12 0-.467-.133-.805-.399-1.015-.266-.21-.693-.315-1.281-.315h-1.778zm0 7.14h1.82c.401 0 .733-.037.994-.112.261-.075.471-.18.63-.315.159-.135.27-.296.336-.483.065-.187.098-.392.098-.616 0-.57-.187-.964-.56-1.183-.373-.22-.882-.329-1.526-.329h-1.792v3.038zm12.866-.126a3.057 3.057 0 01-1.085 1.197c-.462.294-1.043.441-1.743.441a3.54 3.54 0 01-1.365-.252 2.9 2.9 0 01-1.036-.714 3.198 3.198 0 01-.658-1.106 4.25 4.25 0 01-.231-1.442c0-.523.077-.999.231-1.428a2.974 2.974 0 011.68-1.806 3.36 3.36 0 011.323-.252c.532 0 .994.093 1.386.28.392.187.716.436.973.749s.448.677.574 1.092c.126.415.189.847.189 1.295v.448h-4.732c.01.252.047.495.112.728.065.233.163.441.294.623.13.182.299.327.504.434.205.107.453.161.742.161.41 0 .726-.093.945-.28.22-.187.394-.425.525-.714l1.372.546zm-2.898-4.2c-.476 0-.845.154-1.106.462-.261.308-.415.705-.462 1.19h3.108c-.019-.532-.168-.94-.448-1.225-.28-.285-.644-.427-1.092-.427zm8.288 5.558a2.585 2.585 0 01-.609.203 3.544 3.544 0 01-.749.077c-.616 0-1.101-.161-1.456-.483-.355-.322-.532-.791-.532-1.407V11.34h-1.12v-1.176h1.12v-1.89l1.582-.728v2.618h1.498v1.176h-1.498v3.556c0 .29.058.492.175.609a.616.616 0 00.455.175c.14 0 .266-.023.378-.07.112-.047.22-.098.322-.154l.434 1.246zm.854-3.22c0-.541.077-1.027.231-1.456.154-.43.364-.796.63-1.099.266-.303.579-.537.938-.7.36-.163.749-.245 1.169-.245.504 0 .931.107 1.281.322.35.215.609.485.777.812v-.952h1.526V16.8H42.18v-.98a2.666 2.666 0 01-.77.805c-.336.238-.784.357-1.344.357-.41 0-.793-.082-1.148-.245a2.698 2.698 0 01-.924-.7 3.348 3.348 0 01-.616-1.099 4.416 4.416 0 01-.224-1.456zm3.29-2.24c-.252 0-.48.056-.686.168a1.57 1.57 0 00-.525.469c-.145.2-.254.439-.329.714a3.386 3.386 0 00-.112.889c0 .317.037.614.112.889.075.275.182.513.322.714.14.2.308.357.504.469.196.112.42.168.672.168.187 0 .383-.035.588-.105.205-.07.392-.182.56-.336.168-.154.306-.355.413-.602.107-.247.161-.544.161-.889v-.616c0-.355-.054-.653-.161-.896a1.812 1.812 0 00-.406-.595 1.534 1.534 0 00-.539-.336 1.7 1.7 0 00-.574-.105z"/></g></svg>
